X:1
T:Title
%%score { ( 1 3 ) | 2 }
L:1/8
Q:1/4=128
M:4/4
K:Eb
V:1 treble nm="Grand Piano"
V:3 treble 
V:2 bass 
V:1
 B2 G2 A2 c2 | B4 G4 | [B,EB]2 [CEA]2 [B,EG]2 [A,DF]2 | [G,E]6 z2 | [B,F]2 [B,FB]2 [CF=A]2 [Fe]2 | %5
w: E.~Lester~Thurman * * *|||||
 [Fd]4 [Gc]4 | B2 F2 G2 =A2 | [DB]6 z2 | d2 B2 c2 d2 | e4 B4 | A2 c2 [DB]2 [DF]2 | G6 z2 | %12
w: |||||||
 F2 F2 [EF]2 [EF]2 | [DB]2 c2 d2 [Gc]2 | [FB]4 [E=A]4 | [DB]6 z2 | B2 G2 A2 c2 | B4 G4 | %18
w: ||||||
 B2 B2 e2 e2 | [Fd]6 z2 | e2 e2 d2 e2 | d2 c2 [_DGB]2 [CFA]2 | [EG]4 [A,DF]4 | [G,E]6 z2 |] %24
w: ||||||
V:2
 [E,G,E]2 [E,B,E]2 [E,CE]2 [E,A,E]2 | [E,G,E]4 [E,B,E]4 | G,,2 A,,2 B,,2 B,,2 | E,6 z2 | %4
 D,2 D,2 C,2 [C,=A,]2 | [B,,B,]4 [E,C]4 | [F,DF]2 [F,D]2 [F,_D=E]2 [F,C_E]2 | [B,,B,]6 z2 | %8
 [A,B,F]2 [A,DF]2 [A,CF]2 [A,B,F]2 | [G,B,E]4[K:bass] [G,B,E]4 | %10
 [F,CE]2 [F,A,E]2 [B,,F,]2 [B,,B,]2 | [E,B,E]6 z2 | [D,B,]2 [D,B,]2 [C,=A,]2 [C,A,]2 | %13
 [B,,B,]2[K:treble] [F,=A,F]2 [B,F]2[K:bass] [E,E]2 | [F,D]4 [F,C]4 | [B,,B,]6 z2 | %16
 [E,G,E]2 [E,B,E]2 [E,CE]2 [E,A,E]2 | [E,G,E]4 [E,B,E]4 | [G,B,E]2 [G,B,E]2 [F,=A,E]2 [F,A,E]2 | %19
 [B,,B,]4 z4 | [G,B,E]2 [G,B,E]2 [G,B,E]2 [G,B,E]2 | [A,E]2 [A,E]2 =E,2 F,2 | B,4 B,,4 | E,6 z2 |] %24
V:3
 x8 | x8 | x8 | x8 | x8 | x8 | x8 | x8 | x8 | x8 | x8 | x8 | x8 | x8 | x8 | x8 | x8 | x8 | x8 | %19
 z4 B,2 A,2 | x8 | x8 | x8 | x8 |] %24

